X:464
T: Die Ktt, die Lies, die Mau / Nachtgesang (5-60), S. 99
N: P0734
O: Lothringen
S: MERKELBACH-PINCK, Angelika: Verklingende Weisen, Bd 5, Kassel 1962]
R: ???, Fenstergang?]
M: 6/8
L: 1/16
K: F
C2 | F4F2F2E2F2 | G8-G2
C2 | G4GGG2F2G2 | A8-A2
c2 | c4A2F2A2c2 | d4B2G4
F2 | E2E2c2c2c2B2 | A8-A2
F2 | E2E2c2c2c2B2 | A8-A2

@@@ Tune index: 8014
